Sources/FrostedUI/Resources/Icons.xcassets/clipboard20.imageset/clipboard-20.svg

<svg width="20" height="20" viewBox="0 0 20 20" fill="none" xmlns="http://www.w3.org/2000/svg" data-fui-icon="true">
  <path
    d="M10.6533 0.5C11.1983 0.500008 11.6882 0.821198 11.9082 1.3125L11.9482 1.41211L12.1582 2H13.124C13.7526 2 14.2836 2.4225 14.4473 3H15.1562C16.4334 3 17.4688 4.03534 17.4688 5.3125V17.3438C17.4688 18.6209 16.4334 19.6562 15.1562 19.6562H4.84375C3.56659 19.6562 2.53125 18.6209 2.53125 17.3438V5.3125C2.53125 4.03534 3.56659 3 4.84375 3H5.55273C5.71637 2.4225 6.24735 2 6.87598 2H7.8418L8.05176 1.41211C8.2473 0.865078 8.76572 0.500008 9.34668 0.5H10.6533ZM4.84375 4.5C4.39502 4.5 4.03125 4.86377 4.03125 5.3125V17.3438C4.03125 17.7925 4.39502 18.1562 4.84375 18.1562H15.1562C15.605 18.1562 15.9688 17.7925 15.9688 17.3438V5.3125C15.9688 4.86377 15.605 4.5 15.1562 4.5H14.5V4.875C14.5 5.63439 13.8844 6.25 13.125 6.25H6.875C6.11561 6.25 5.5 5.63439 5.5 4.875V4.5H4.84375ZM13.2812 13.5C13.6955 13.5 14.0312 13.8358 14.0312 14.25C14.0312 14.6642 13.6955 15 13.2812 15H6.71875C6.30454 15 5.96875 14.6642 5.96875 14.25C5.96875 13.8358 6.30454 13.5 6.71875 13.5H13.2812ZM13.2812 9C13.6955 9 14.0312 9.33579 14.0312 9.75C14.0312 10.1642 13.6955 10.5 13.2812 10.5H6.71875C6.30454 10.5 5.96875 10.1642 5.96875 9.75C5.96875 9.33579 6.30454 9 6.71875 9H13.2812ZM9.12988 2.85449C9.07805 3.22304 8.76465 3.49998 8.38965 3.5H7V4.75H13V3.5H11.6104C11.2353 3.49998 10.922 3.22304 10.8701 2.85449L10.5645 2H9.43555L9.12988 2.85449Z"
    fill="currentColor"
  />
</svg>

<svg xmlns="http://www.w3.org/2000/svg" width="20" height="20" fill="none" data-fui-icon="true" viewBox="0 0 20 20"><path fill="currentColor" d="M10.653.5c.545 0 1.035.321 1.255.813l.04.1.21.587h.966c.629 0 1.16.422 1.323 1h.71a2.313 2.313 0 0 1 2.312 2.313v12.03a2.313 2.313 0 0 1-2.313 2.313H4.844a2.31 2.31 0 0 1-2.313-2.312V5.312A2.31 2.31 0 0 1 4.844 3h.709c.163-.578.694-1 1.323-1h.966l.21-.588A1.375 1.375 0 0 1 9.347.5zm-5.81 4a.813.813 0 0 0-.812.813v12.03c0 .45.364.813.813.813h10.312a.81.81 0 0 0 .813-.812V5.312a.813.813 0 0 0-.813-.812H14.5v.375c0 .76-.616 1.375-1.375 1.375h-6.25c-.76 0-1.375-.616-1.375-1.375V4.5zm8.438 9a.75.75 0 1 1 0 1.5H6.72a.75.75 0 0 1 0-1.5zm0-4.5a.75.75 0 1 1 0 1.5H6.72a.75.75 0 0 1 0-1.5zM9.13 2.854a.75.75 0 0 1-.74.646H7v1.25h6V3.5h-1.39a.75.75 0 0 1-.74-.646L10.565 2h-1.13z"/></svg>
